; generated by Slic3r 1.1.7 on 2015-02-19 at 14:23:25

; perimeters extrusion width = 0.50mm
; infill extrusion width = 0.70mm
; solid infill extrusion width = 0.70mm
; top infill extrusion width = 0.70mm

G21 ; set units to millimeters
M107
M190 S110 ; wait for bed temperature to be reached
M104 S225 ; set temperature
G28 ; home all axes
G1 Z5 F5000 ; lift nozzle

M109 S225 ; wait for temperature to be reached
G90 ; use absolute coordinates
G92 E0
M82 ; use absolute distances for extrusion
G1 F1800.000 E-1.00000
G92 E0
G1 Z0.350 F7800.000
G1 X68.209 Y73.137 F7800.000
G1 E1.00000 F1800.000
G1 X69.962 Y71.651 E1.07480 F1080.000
G1 X72.117 Y70.850 E1.14960
G1 X73.325 Y70.739 E1.18906
G1 X113.657 Y70.739 E2.50128
G1 X126.680 Y70.750 E2.92498 F1080.000
G1 X128.945 Y71.148 E2.99978
G1 X130.938 Y72.294 E3.07458
G1 X132.423 Y74.049 E3.14938
G1 X133.223 Y76.204 E3.22418
G1 X133.332 Y77.407 E3.26347
G1 X133.332 Y122.539 E4.73185
G1 X132.935 Y124.803 E4.80665
G1 X131.791 Y126.798 E4.88145
G1 X130.038 Y128.284 E4.95625
G1 X127.883 Y129.085 E5.03105
G1 X126.676 Y129.196 E5.07048
G1 X73.326 Y129.202 E6.80623
G1 X71.061 Y128.806 E6.88103
G1 X69.067 Y127.662 E6.95583
G1 X67.580 Y125.908 E7.03063
G1 X66.779 Y123.754 E7.10543
G1 X66.668 Y122.545 E7.14491
G1 X66.668 Y77.396 E8.61384
G1 X67.065 Y75.132 E8.68864
G1 X68.171 Y73.202 E8.76100
G1 F1800.000 E7.76100
G92 E0
G1 X71.270 Y76.199 F7800.000
G1 E1.00000 F1800.000
G1 X72.372 Y75.097 E1.05072 F1080.000
G1 X127.629 Y75.108 E2.84850
G1 X128.975 Y76.455 E2.91045 F1080.000
G1 X128.975 Y123.491 E4.44080
G1 X127.628 Y124.839 E4.50279
G1 X73.565 Y124.836 E6.26174
G1 X72.453 Y124.890 E6.29795
G1 X71.025 Y123.531 E6.36209
G1 X71.025 Y112.261 E6.72875
G1 X72.218 Y110.947 E6.78651
G1 X72.293 Y110.939 E6.78896
G1 X72.415 Y110.880 E6.79337
G1 X74.582 Y110.770 E6.86397
G1 X75.669 Y110.605 E6.89975
G1 X76.766 Y110.321 E6.93661
G1 X77.797 Y109.938 E6.97239
G1 X78.783 Y109.452 E7.00817
G1 X79.688 Y108.888 E7.04286
G1 X80.559 Y108.216 E7.07864
G1 X81.357 Y107.459 E7.11442
G1 X82.075 Y106.626 E7.15020
G1 X82.704 Y105.724 E7.18598
G1 X83.240 Y104.764 E7.22176
G1 X83.675 Y103.754 E7.25754
G1 X84.006 Y102.705 E7.29332
G1 X84.229 Y101.628 E7.32910
G1 X84.342 Y100.534 E7.36488
G1 X84.343 Y99.434 E7.40066
G1 X84.234 Y98.340 E7.43644
G1 X84.014 Y97.263 E7.47222
G1 X83.686 Y96.213 E7.50800
G1 X83.254 Y95.201 E7.54378
G1 X82.722 Y94.239 E7.57956
G1 X82.095 Y93.336 E7.61534
G1 X81.380 Y92.500 E7.65112
G1 X80.584 Y91.741 E7.68690
G1 X79.716 Y91.067 E7.72268
G1 X78.783 Y90.483 E7.75846
G1 X77.797 Y89.998 E7.79424
G1 X76.766 Y89.614 E7.83002
G1 X75.702 Y89.337 E7.86580
G1 X74.615 Y89.169 E7.90158
G1 X72.371 Y89.053 E7.97470
G1 X72.258 Y89.022 E7.97850
G1 X71.025 Y87.698 E8.03737
G1 X71.025 Y76.444 E8.40352
G1 X71.217 Y76.252 E8.41234
G1 X71.735 Y76.664 F7800.000
G1 X72.645 Y75.754 E8.45421 F1080.000
G1 X113.653 Y75.754 E9.78843
G1 X127.356 Y75.765 E10.23427 F1080.000
G1 X128.318 Y76.727 E10.27852
G1 X128.318 Y123.219 E11.79116
G1 X127.355 Y124.182 E11.83544
G1 X73.548 Y124.179 E13.58606
G1 X72.702 Y124.220 E13.61363
G1 X71.682 Y123.249 E13.65944
G1 X71.682 Y112.515 E14.00869
G1 X72.534 Y111.576 E14.04994
G1 X72.601 Y111.569 E14.05211
G1 X72.694 Y111.524 E14.05551
G1 X74.648 Y111.424 E14.11916
G1 X75.801 Y111.249 E14.15711
G1 X76.931 Y110.959 E14.19506
G1 X78.056 Y110.542 E14.23409
G1 X79.102 Y110.027 E14.27204
G1 X80.091 Y109.409 E14.30998
G1 X81.013 Y108.693 E14.34793
G1 X81.834 Y107.913 E14.38480
G1 X82.595 Y107.029 E14.42275
G1 X83.263 Y106.072 E14.46070
G1 X83.830 Y105.053 E14.49864
G1 X84.292 Y103.982 E14.53659
G1 X84.643 Y102.870 E14.57454
G1 X84.879 Y101.728 E14.61249
G1 X84.999 Y100.567 E14.65044
G1 X85.000 Y99.401 E14.68839
G1 X84.884 Y98.240 E14.72633
G1 X84.651 Y97.098 E14.76428
G1 X84.303 Y95.984 E14.80223
G1 X83.845 Y94.912 E14.84018
G1 X83.280 Y93.891 E14.87813
G1 X82.615 Y92.933 E14.91608
G1 X81.857 Y92.047 E14.95402
G1 X81.013 Y91.242 E14.99197
G1 X80.091 Y90.527 E15.02992
G1 X79.102 Y89.908 E15.06787
G1 X78.025 Y89.380 E15.10690
G1 X76.931 Y88.976 E15.14485
G1 X75.801 Y88.686 E15.18279
G1 X74.648 Y88.511 E15.22074
G1 X72.658 Y88.410 E15.28557
G1 X72.563 Y88.385 E15.28878
G1 X71.682 Y87.439 E15.33083
G1 X71.682 Y76.717 E15.67968
G1 X72.339 Y76.988 F7800.000
G1 X72.917 Y76.411 E15.70625 F1080.000
G1 X127.084 Y76.421 E17.46859
G1 X127.661 Y76.999 E17.49514 F1080.000
G1 X127.661 Y122.947 E18.99008
G1 X127.083 Y123.524 E19.01664
G1 X73.532 Y123.522 E20.75894
G1 X72.951 Y123.550 E20.77786
G1 X72.339 Y122.968 E20.80535
G1 X72.339 Y112.769 E21.13718
G1 X72.850 Y112.205 E21.16193
G1 X72.974 Y112.167 E21.16614
G1 X74.715 Y112.079 E21.22285
G1 X75.934 Y111.894 E21.26296
G1 X77.128 Y111.586 E21.30308
G1 X78.315 Y111.147 E21.34428
G1 X79.422 Y110.602 E21.38439
G1 X80.467 Y109.949 E21.42451
G1 X81.416 Y109.214 E21.46355
G1 X82.311 Y108.366 E21.50366
G1 X83.115 Y107.431 E21.54378
G1 X83.821 Y106.420 E21.58390
G1 X84.421 Y105.343 E21.62401
G1 X84.909 Y104.211 E21.66413
G1 X85.279 Y103.035 E21.70425
G1 X85.529 Y101.827 E21.74436
G1 X85.656 Y100.601 E21.78448
G1 X85.657 Y99.368 E21.82459
G1 X85.534 Y98.141 E21.86471
G1 X85.288 Y96.933 E21.90483
G1 X84.920 Y95.756 E21.94494
G1 X84.436 Y94.622 E21.98506
G1 X83.839 Y93.543 E22.02518
G1 X83.136 Y92.530 E22.06529
G1 X82.334 Y91.593 E22.10541
G1 X81.441 Y90.743 E22.14553
G1 X80.467 Y89.987 E22.18564
G1 X79.422 Y89.333 E22.22576
G1 X78.285 Y88.775 E22.26696
G1 X77.128 Y88.349 E22.30708
G1 X75.934 Y88.041 E22.34719
G1 X74.715 Y87.856 E22.38731
G1 X72.946 Y87.766 E22.44492
G1 X72.868 Y87.748 E22.44755
G1 X72.339 Y87.181 E22.47278
G1 X72.339 Y77.063 E22.80196
G1 X73.189 Y77.068 F7800.000
G1 X126.811 Y77.078 E24.54657 F1080.000
G1 X127.004 Y77.271 E24.55542
G1 X127.004 Y122.675 E26.03266
G1 X126.811 Y122.867 E26.04151
G1 X73.516 Y122.865 E27.77548
G1 X73.200 Y122.880 E27.78576
G1 X72.996 Y122.686 E27.79492
G1 X72.996 Y113.022 E28.10934
G1 X73.167 Y112.834 E28.11759
G1 X73.254 Y112.811 E28.12052
G1 X74.781 Y112.734 E28.17028
G1 X76.099 Y112.532 E28.21365
G1 X77.357 Y112.204 E28.25594
G1 X78.575 Y111.751 E28.29822
G1 X79.741 Y111.177 E28.34051
G1 X80.843 Y110.489 E28.38279
G1 X81.845 Y109.713 E28.42399
G1 X82.788 Y108.819 E28.46628
G1 X83.636 Y107.834 E28.50856
G1 X84.379 Y106.768 E28.55085
G1 X85.012 Y105.633 E28.59313
G1 X85.526 Y104.439 E28.63542
G1 X85.916 Y103.200 E28.67770
G1 X86.180 Y101.927 E28.71999
G1 X86.313 Y100.634 E28.76227
G1 X86.314 Y99.334 E28.80456
G1 X86.185 Y98.041 E28.84684
G1 X85.925 Y96.768 E28.88913
G1 X85.537 Y95.527 E28.93141
G1 X85.026 Y94.332 E28.97370
G1 X84.397 Y93.195 E29.01598
G1 X83.656 Y92.127 E29.05827
G1 X82.811 Y91.140 E29.10055
G1 X81.870 Y90.243 E29.14284
G1 X80.843 Y89.447 E29.18512
G1 X79.741 Y88.758 E29.22741
G1 X78.544 Y88.171 E29.27078
G1 X77.325 Y87.721 E29.31306
G1 X76.099 Y87.403 E29.35426
G1 X74.781 Y87.202 E29.39763
G1 X73.234 Y87.123 E29.44804
G1 X73.173 Y87.111 E29.45008
G1 X72.996 Y86.922 E29.45849
G1 X72.996 Y77.260 E29.77284
G1 X73.136 Y77.121 E29.77926
G1 F1800.000 E28.77926
G92 E0
G1 X73.413 Y117.438 F7800.000
G1 E1.00000 F1800.000
G1 X73.413 Y114.143 E1.10723 F378.000
G1 X73.492 Y113.976 E1.11323
G1 X73.829 Y113.616 E1.12929
G1 X74.856 Y113.553 E1.16277
G1 X75.414 Y113.492 E1.18101
G1 X76.272 Y113.334 E1.20941
G1 X77.284 Y113.093 E1.24326
G1 X77.565 Y113.008 E1.25280
G1 X78.862 Y112.528 E1.29782
G1 X79.216 Y112.374 E1.31034
G1 X80.103 Y111.915 E1.34285
G1 X80.892 Y111.454 E1.37259
G1 X81.320 Y111.159 E1.38949
G1 X82.381 Y110.352 E1.43287
G1 X83.413 Y109.356 E1.47953
G1 X83.832 Y108.901 E1.49966
G1 X84.279 Y108.343 E1.52292
G1 X84.989 Y107.362 E1.56233
G1 X85.107 Y107.172 E1.56958
G1 X85.750 Y106.004 E1.61296
G1 X85.907 Y105.683 E1.62459
G1 X86.308 Y104.685 E1.65960
G1 X86.606 Y103.817 E1.68944
G1 X86.714 Y103.415 E1.70300
G1 X87.011 Y102.011 E1.74967
G1 X87.133 Y100.684 E1.79304
G1 X87.159 Y99.968 E1.81636
G1 X87.133 Y99.251 E1.83968
G1 X87.020 Y97.985 E1.88104
G1 X86.725 Y96.569 E1.92809
G1 X86.606 Y96.118 E1.94329
G1 X86.291 Y95.204 E1.97474
G1 X85.934 Y94.311 E2.00602
G1 X85.773 Y93.976 E2.01813
G1 X85.027 Y92.631 E2.06816
G1 X84.310 Y91.632 E2.10818
G1 X83.832 Y91.034 E2.13306
G1 X83.413 Y90.579 E2.15319
G1 X82.421 Y89.615 E2.19819
G1 X81.320 Y88.776 E2.24323
G1 X80.892 Y88.481 E2.26014
G1 X80.103 Y88.020 E2.28988
G1 X79.216 Y87.561 E2.32239
G1 X78.862 Y87.408 E2.33491
G1 X77.565 Y86.927 E2.37993
G1 X77.284 Y86.842 E2.38947
G1 X76.272 Y86.601 E2.42331
G1 X75.414 Y86.443 E2.45172
G1 X74.856 Y86.382 E2.46996
G1 X73.829 Y86.319 E2.50343
G1 X73.492 Y85.959 E2.51949
G1 X73.433 Y85.877 E2.52278
G1 X73.413 Y85.793 E2.52561
G1 X73.413 Y81.474 E2.66613
G1 F1800.000 E1.66613
G92 E0
G1 X126.325 Y122.189 F7800.000
G1 E1.00000 F1800.000
G1 X73.675 Y122.187 E2.71298 F378.000
G1 X73.675 Y118.800 E2.82316
G1 X75.189 Y118.732 E2.87246
G1 X76.864 Y118.505 E2.92746
G1 X78.512 Y118.129 E2.98247
G1 X80.120 Y117.607 E3.03747
G1 X81.675 Y116.942 E3.09247
G1 X83.163 Y116.141 E3.14747
G1 X84.574 Y115.210 E3.20247
G1 X85.896 Y114.156 E3.25748
G1 X86.518 Y113.561 E3.28548
G1 X87.118 Y112.987 E3.31248
G1 X88.230 Y111.714 E3.36748
G1 X89.224 Y110.347 E3.42248
G1 X90.091 Y108.895 E3.47749
G1 X90.824 Y107.372 E3.53249
G1 X91.418 Y105.790 E3.58749
G1 X91.868 Y104.160 E3.64249
G1 X92.170 Y102.497 E3.69749
G1 X92.321 Y100.813 E3.75250
G1 X92.321 Y99.122 E3.80750
G1 X92.170 Y97.439 E3.86250
G1 X91.868 Y95.775 E3.91750
G1 X91.418 Y94.146 E3.97250
G1 X90.824 Y92.563 E4.02751
G1 X90.091 Y91.040 E4.08251
G1 X89.224 Y89.588 E4.13751
G1 X88.230 Y88.221 E4.19251
G1 X87.118 Y86.948 E4.24752
G1 X86.496 Y86.353 E4.27552
G1 X85.896 Y85.779 E4.30252
G1 X84.574 Y84.725 E4.35752
G1 X83.163 Y83.794 E4.41252
G1 X81.675 Y82.993 E4.46752
G1 X80.120 Y82.329 E4.52253
G1 X78.512 Y81.806 E4.57753
G1 X76.864 Y81.430 E4.63253
G1 X75.189 Y81.203 E4.68753
G1 X73.675 Y81.135 E4.73684
G1 X73.675 Y77.746 E4.84709
G1 X126.325 Y77.756 E6.56007
G1 X126.325 Y122.114 E8.00324
G1 X125.892 Y121.939 F7800.000
G1 X125.668 Y121.532 F7800.000
G1 X74.332 Y121.529 E9.67347 F540.000
G1 X74.332 Y119.428 E9.74182
G1 X75.248 Y119.387 E9.77165
G1 X76.982 Y119.152 E9.82857
G1 X78.687 Y118.763 E9.88549
G1 X80.351 Y118.222 E9.94241
G1 X81.960 Y117.535 E9.99934
G1 X83.501 Y116.706 E10.05626
G1 X84.961 Y115.742 E10.11318
G1 X86.329 Y114.651 E10.17010
G1 X87.593 Y113.442 E10.22703
G1 X88.744 Y112.124 E10.28395
G1 X89.773 Y110.709 E10.34087
G1 X90.670 Y109.207 E10.39779
G1 X91.429 Y107.631 E10.45472
G1 X92.044 Y105.993 E10.51164
G1 X92.509 Y104.306 E10.56856
G1 X92.822 Y102.585 E10.62548
G1 X92.978 Y100.842 E10.68240
G1 X92.978 Y99.093 E10.73933
G1 X92.822 Y97.350 E10.79625
G1 X92.509 Y95.629 E10.85317
G1 X92.044 Y93.942 E10.91009
G1 X91.429 Y92.304 E10.96702
G1 X90.670 Y90.728 E11.02394
G1 X89.773 Y89.226 E11.08086
G1 X88.744 Y87.811 E11.13778
G1 X87.593 Y86.493 E11.19471
G1 X86.950 Y85.878 E11.22367
G1 X86.329 Y85.284 E11.25163
G1 X84.961 Y84.193 E11.30855
G1 X83.501 Y83.229 E11.36547
G1 X81.960 Y82.400 E11.42240
G1 X80.351 Y81.713 E11.47932
G1 X78.687 Y81.172 E11.53624
G1 X76.982 Y80.783 E11.59316
G1 X75.248 Y80.548 E11.65008
G1 X74.332 Y80.507 E11.67991
G1 X74.332 Y78.403 E11.74834
G1 X125.668 Y78.413 E13.41856
G1 X125.668 Y121.457 E14.81900
G1 X125.011 Y120.875 F7800.000
G1 X74.989 Y120.872 E16.44647 F540.000
G1 X74.989 Y120.057 E16.47300
G1 X75.307 Y120.042 E16.48335
G1 X77.099 Y119.800 E16.54219
G1 X78.862 Y119.397 E16.60103
G1 X80.582 Y118.838 E16.65987
G1 X82.245 Y118.127 E16.71872
G1 X83.838 Y117.270 E16.77756
G1 X85.347 Y116.274 E16.83640
G1 X86.761 Y115.146 E16.89524
G1 X88.069 Y113.897 E16.95409
G1 X89.259 Y112.535 E17.01293
G1 X90.322 Y111.071 E17.07177
G1 X91.249 Y109.519 E17.13061
G1 X92.034 Y107.889 E17.18946
G1 X92.669 Y106.196 E17.24830
G1 X93.151 Y104.453 E17.30714
G1 X93.473 Y102.673 E17.36598
G1 X93.636 Y100.872 E17.42483
G1 X93.636 Y99.063 E17.48367
G1 X93.473 Y97.262 E17.54251
G1 X93.151 Y95.482 E17.60135
G1 X92.669 Y93.739 E17.66020
G1 X92.034 Y92.046 E17.71904
G1 X91.249 Y90.416 E17.77788
G1 X90.322 Y88.864 E17.83673
G1 X89.259 Y87.401 E17.89557
G1 X88.069 Y86.039 E17.95441
G1 X86.761 Y84.789 E18.01325
G1 X85.347 Y83.661 E18.07209
G1 X83.838 Y82.665 E18.13094
G1 X82.245 Y81.808 E18.18978
G1 X81.400 Y81.446 E18.21970
G1 X80.582 Y81.097 E18.24862
G1 X78.862 Y80.538 E18.30747
G1 X77.099 Y80.136 E18.36631
G1 X75.307 Y79.893 E18.42515
G1 X74.989 Y79.879 E18.43549
G1 X74.989 Y79.060 E18.46211
G1 X125.011 Y79.070 E20.08958
G1 X125.011 Y120.800 E21.44727
G1 X124.514 Y79.526 F7800.000
G1 X124.554 Y79.566 E21.44912 F1080.000
G1 X124.554 Y80.499 E21.47949
G1 X123.580 Y79.525 E21.52431
G1 X122.646 Y79.524 E21.55470
G1 X124.554 Y81.432 E21.64251
G1 X124.554 Y82.366 E21.67288
G1 X121.712 Y79.523 E21.80367
G1 X120.778 Y79.523 E21.83407
G1 X124.554 Y83.299 E22.00784
G1 X124.554 Y84.233 E22.03821
G1 X119.844 Y79.522 E22.25497
G1 X118.909 Y79.521 E22.28536
G1 X124.554 Y85.166 E22.54510
G1 X124.554 Y86.100 E22.57547
G1 X117.975 Y79.520 E22.87819
G1 X117.041 Y79.520 E22.90859
G1 X124.554 Y87.033 E23.25430
G1 X124.554 Y87.966 E23.28467
G1 X116.107 Y79.519 E23.67336
G1 X115.173 Y79.518 E23.70375
G1 X124.554 Y88.900 E24.13542
G1 X124.554 Y89.833 E24.16579
G1 X114.238 Y79.517 E24.64045
G1 X113.305 Y79.517 E24.67083
G1 X124.554 Y90.767 E25.18846
G1 X124.554 Y91.700 E25.21883
G1 X112.371 Y79.517 E25.77941
G1 X111.438 Y79.517 E25.80978
G1 X124.554 Y92.634 E26.41330
G1 X124.554 Y93.567 E26.44367
G1 X110.504 Y79.517 E27.09015
G1 X109.571 Y79.517 E27.12052
G1 X124.554 Y94.500 E27.80994
G1 X124.554 Y95.434 E27.84031
G1 X108.637 Y79.517 E28.57268
G1 X107.704 Y79.517 E28.60305
G1 X124.554 Y96.367 E29.37837
G1 X124.554 Y97.301 E29.40874
G1 X106.771 Y79.517 E30.22701
G1 X105.837 Y79.517 E30.25738
G1 X124.554 Y98.234 E31.11860
G1 X124.554 Y99.168 E31.14897
G1 X104.904 Y79.517 E32.05314
G1 X103.970 Y79.517 E32.08351
G1 X124.554 Y100.101 E33.03062
G1 X124.554 Y101.035 E33.06099
G1 X103.037 Y79.517 E34.05106
G1 X102.103 Y79.517 E34.08143
G1 X124.554 Y101.968 E35.11444
G1 X124.554 Y102.901 E35.14481
G1 X101.170 Y79.517 E36.22077
G1 X100.237 Y79.517 E36.25114
G1 X124.554 Y103.835 E37.37006
G1 X124.554 Y104.768 E37.40043
G1 X99.303 Y79.517 E38.56229
G1 X98.370 Y79.517 E38.59266
G1 X124.554 Y105.702 E39.79747
G1 X124.554 Y106.635 E39.82784
G1 X97.436 Y79.517 E41.07560
G1 X96.503 Y79.517 E41.10597
G1 X124.554 Y107.569 E42.39667
G1 X124.554 Y108.502 E42.42704
G1 X95.569 Y79.517 E43.76070
G1 X94.636 Y79.517 E43.79107
G1 X124.554 Y109.435 E45.16768
G1 X124.554 Y110.369 E45.19804
G1 X93.702 Y79.517 E46.61760
G1 X92.769 Y79.517 E46.64797
G1 X124.554 Y111.302 E48.11047
G1 X124.554 Y112.236 E48.14084
G1 X91.836 Y79.517 E49.64630
G1 X90.902 Y79.517 E49.67666
G1 X124.554 Y113.169 E51.22507
G1 X124.554 Y114.103 E51.25544
G1 X89.969 Y79.517 E52.84679
G1 X89.035 Y79.517 E52.87716
G1 X124.554 Y115.036 E54.51146
G1 X124.554 Y115.969 E54.54183
G1 X88.102 Y79.517 E56.21907
G1 X87.168 Y79.517 E56.24944
G1 X124.554 Y116.903 E57.96964
G1 X124.554 Y117.836 E58.00001
G1 X86.235 Y79.517 E59.76316
G1 X85.302 Y79.517 E59.79353
G1 X124.554 Y118.770 E61.59962
G1 X124.554 Y119.703 E61.62999
G1 X84.368 Y79.517 E63.47904
G1 X83.435 Y79.517 E63.50940
G1 X124.336 Y120.418 E65.39135
G1 X123.403 Y120.418 E65.42172
G1 X82.501 Y79.517 E67.30367
G1 X81.568 Y79.517 E67.33403
G1 X84.812 Y82.761 E67.48329
G1 X82.596 Y81.478 F7800.000
G1 X80.634 Y79.517 E67.57353 F1080.000
G1 X79.701 Y79.517 E67.60390
G1 X80.936 Y80.752 E67.66072
G1 X79.524 Y80.273 F7800.000
G1 X78.768 Y79.517 E67.69552 F1080.000
G1 X90.762 Y88.711 F7800.000
G1 X122.469 Y120.418 E69.15443 F1080.000
G1 X121.536 Y120.418 E69.18480
G1 X91.962 Y90.844 E70.54555
G1 X92.696 Y92.512 F7800.000
G1 X120.602 Y120.418 E71.82954 F1080.000
G1 X119.669 Y120.418 E71.85991
G1 X93.201 Y93.950 E73.07773
G1 X93.557 Y95.240 E73.12125
G1 X118.735 Y120.418 E74.27974
G1 X117.802 Y120.418 E74.31011
G1 X93.780 Y96.396 E75.41539
G1 X93.953 Y97.503 E75.45183
G1 X116.868 Y120.418 E76.50618
G1 X115.935 Y120.418 E76.53655
G1 X94.046 Y98.529 E77.54371
G1 X94.092 Y99.508 E77.57562
